X:99
T:[untitled]
T:pretty I think
Z:Jack Campin - http://www.campin.me.uk
S:Blaikie MS (NLS MS.1578) p29, Blaikie #93
M:C
L:1/8
V:1 midi program 1 74
V:2 midi program 1 46 bass middle = d transpose -24
Q:1/4=100
K:G
[V:1] [E2B,2]|    D2 D>E    D>EG>F|E>D`EF    G3  G|GB`B>B cB`AG   |d>B`de d2
[V:2]  z2    |    G2 g2     g2 g2 |c2  A2    G2 g2|G2 g2  g2 g2   |G2  g2 g2
%
[V:1]  zB    |{Bc}d2 cB {AB}c2 BA |G2  G/F/E D2 zB|d2 ed  B2 Dz/D/|E2  FD G2|]
[V:2]  g2    |    g2 g2     d2 d2 |G2  g2    d2 z2|g2 g2  g2 B2   |c2  d2 g2|]
W:Transcription (c) Jack Campin 2009, no mirroring or republication without permission

